X:1
T:Boxelder, 11.11.11.10 D
T:Boxelder, 11.11.11.10 D
T:Asa Hull, 1886
T:Public Domain Courtesy of the Cyber Hymnal™
C:Asa Hull, 1886
Z:Public Domain
Z:Courtesy of the Cyber Hymnal™
%%score ( 1 2 ) ( 3 4 )
L:1/8
Q:1/4=110
M:9/8
K:G
V:1 treble 
V:2 treble 
V:3 bass 
V:4 bass 
V:1
 D[DG][DA] | [GB]3 [DG]2 [DG] [DG][DA][DB] | [Ec]3 [EA]3 [DF][DE][DF] | %3
 [DG]3 [GB]2 [GB] [GB][DA]G | [FA]6 D[DG][DA] | [GB]3 [DG]2 [DG] [DG][DA][DB] | %6
 [Ec]3 [EA]3 [DF][DE][DF] | [DG]3 [GB]2 [GB] [GB]2 [FA] | [DG]6 [Gd][G^c][Gd] | %9
 [Ge]3 [Gd]2 [GB] [GB][G^A][GB] | [Gc]3 [GB]3 [GB][DA][DG] | [DF]3 [FA]2 [FA] [EA][^CG][CE] | %12
 D6 DEF | G3 D z [GB] [GB][GA][GB] | [Ec]3 [EA]2 z [DF][DE][DF] | [DG]3 [GB]2 [GB] [GB]2 [FA] | %16
 [DG]6 |] %17
V:2
 D x2 | x9 | x9 | x8 G | x6 D x2 | x9 | x9 | x9 | x9 | x9 | x9 | x9 | D6 DEF | G3 D x5 | x9 | x9 | %16
 x6 |] %17
V:3
 [G,B,][G,B,][G,C] | [G,D]3 [G,B,]2 [G,B,] [G,B,][G,C][G,D] | [C,C]3 [C,C]3 [C,C][C,C][C,C] | %3
 [G,B,]3 [G,D]2 [G,D] [G,D][F,D][E,^C] | [D,D]6 [G,B,][G,B,][G,C] | %5
 [G,D]3 [G,B,]2 [G,B,] [G,B,][G,C][G,D] | [C,C]3 [C,C]3 [D,C][D,C][D,C] | %7
 [G,B,]3 [G,D]2 [G,D] [D,D]2 [D,C] | [G,B,]6 [G,B,][G,^A,][G,B,] | %9
 [G,C]3 [G,B,]2 [G,D] [G,D][G,^C][G,D] | [G,E]3 [G,D]3 [G,D][G,C][G,B,] | %11
 [D,A,]3 [D,D]2 [D,D] [A,,^C][A,,A,][A,,G,] | [D,F,]6 D,E,F, | G,3 D, z [G,D] [G,D][G,D][G,D] | %14
 [C,C]3 [C,C]2 z [D,C][D,C][D,C] | [G,B,]3 [G,D]2 [G,D] [D,D]2 [D,C] | [G,B,]6 |] %17
V:4
 x3 | x9 | x9 | x9 | x9 | x9 | x9 | x9 | x9 | x9 | x9 | x9 | x6 D,E,F, | G,3 D, x5 | x9 | x9 | %16
 x6 |] %17

